src/components/Icon/utils/svgsOptimized/image.svg

<?xml version="1.0" encoding="utf-8"?><svg width="24" height="24" xmlns="http://www.w3.org/2000/svg" viewBox="0 0 24 24"><path d="M17 6H7c-.55 0-1 .45-1 1v10c0 .55.45 1 1 1h10c.55 0 1-.45 1-1V7c0-.55-.45-1-1-1ZM7 7h10v4.84l-1.54-1.54a.996.996 0 0 0-1.41 0L7.34 17H7V7Zm2 3c0-.55.45-1 1-1s1 .45 1 1-.45 1-1 1-1-.45-1-1Z"/></svg>

<svg width="24" height="24" viewBox="0 0 24 24"  xmlns="http://www.w3.org/2000/svg">
<path d="M17 6H7C6.45 6 6 6.45 6 7V17C6 17.55 6.45 18 7 18H17C17.55 18 18 17.55 18 17V7C18 6.45 17.55 6 17 6ZM7 7H17V11.84L15.46 10.3C15.07 9.91 14.44 9.91 14.05 10.3L7.34 17H7V7ZM9 10C9 9.45 9.45 9 10 9C10.55 9 11 9.45 11 10C11 10.55 10.55 11 10 11C9.45 11 9 10.55 9 10Z" />
</svg>
